!!!OTL: Die verkaufte Muellerin Es wollt' ein Mueller frueh aufstehn,
!!!ARE: Europa, Mitteleuropa, Deutschland (BRD), Hessen, Nassau
!!!YOR: 4, S. 346
!!    1894 gedruckt in Berlin
!!!SCT: Q0086a
!!!YEM: Copyright 1995, estate of Helmut Schaffrath.
**kern
*ICvox
*Ivox
*M4/4
*k[f#]
*G:
{4d
=1
4.g
8g
4g
4a
=2
4f#
4f#
4f#}
{4d
=3
4.g
8g
4g
4a
=4
4f#
4f#
4f#}
{4d
=5
4g
4b
8b
8a
4g
=6
4cc
4ee
4ee}
{4ee
=7
4dd
4dd
8dd
8cc
4cc
=8
4cc
4b
4r}
==
!!!AGN: Ballade, Menschenhandel, Rettung, Hinrichtung
!!!ONB: ESAC (Essen Associative Code) Database: BALLADE
!!!AMT: simple quadruple
!!!AIN: vox
!!!EED: Helmut Schaffrath
!!!EEV: 1.0
*-
